symbols/web/docs_apps_script/materialsymbolsoutlined/docs_apps_script_wght200fill1_48px.svg

<svg xmlns="http://www.w3.org/2000/svg" height="48" width="48"><path d="M26 40.75q-.35 0-.55-.2-.2-.2-.2-.55 0-.35.2-.55.2-.2.55-.2h9.55l-7.8-5.5q-.25-.15-.325-.475-.075-.325.125-.575.15-.25.475-.325.325-.075.575.125l7.85 5.4-3.3-8.9q-.15-.35.025-.6t.475-.4q.25-.15.55.025.3.175.45.425l3.2 8.95 2.55-9.15q.05-.3.3-.475t.55-.075q.3.05.5.3t.1.55l-3.1 11.6q-.1.25-.275.425-.175.175-.475.175ZM7 35v-1.55h14.2q.05.45.075.775.025.325.025.775Zm0-8.15V25.3h18.55q-.45.35-.85.75-.4.4-.75.8Zm0-8.15v-1.55h28v1.55Zm0-8.15V9h28v1.55Z"/></svg>

<svg xmlns="http://www.w3.org/2000/svg" height="48" width="48"><path d="M26 40.75Q25.65 40.75 25.45 40.55Q25.25 40.35 25.25 40Q25.25 39.65 25.45 39.45Q25.65 39.25 26 39.25H35.55L27.75 33.75Q27.5 33.6 27.425 33.275Q27.35 32.95 27.55 32.7Q27.7 32.45 28.025 32.375Q28.35 32.3 28.6 32.5L36.45 37.9L33.15 29Q33 28.65 33.175 28.4Q33.35 28.15 33.65 28Q33.9 27.85 34.2 28.025Q34.5 28.2 34.65 28.45L37.85 37.4L40.4 28.25Q40.45 27.95 40.7 27.775Q40.95 27.6 41.25 27.7Q41.55 27.75 41.75 28Q41.95 28.25 41.85 28.55L38.75 40.15Q38.65 40.4 38.475 40.575Q38.3 40.75 38 40.75ZM35 10.55H7V9H35ZM7 18.7V17.15H35V18.7ZM7 26.85V25.3H25.55Q25.1 25.65 24.7 26.05Q24.3 26.45 23.95 26.85ZM7 33.45H21.2Q21.25 33.55 21.25 33.7Q21.25 33.85 21.25 33.95Q21.25 34.25 21.275 34.5Q21.3 34.75 21.3 35H7Z"/></svg>
